X:1
T:Miss Lylle of Gardyne's
M:C|
L:1/16
R:Strathspey
B:Archibald Duff – Collection of Strathspey Reels &c. (1794, p. 25)
Z:AK/Fiddler’s Companion
K:G
E2|D3B,G,2B,2 D3EG2E2|D3EG3A BA3A2B2|GE3DB,3 D3ED2B,2|
D3EG3A BG3G2:|Bc|d3Ge3G d3GB3G|D3GB3G cA3A2B2|
d3Ge3G d3GB2G2|D3GB3A BG3G2Bc|d3Ge3G d3GBG3|
D3GB2G2 cA3A3B|G2D2 (EDCB,) D2E2G3B|c2A2 (dcBA) B2G2G2||

